build/logo/ClickHouseOutline.svg

<svg xmlns="http://www.w3.org/2000/svg" fill="none" viewBox="0 0 24 24" focusable="false"><path d="M0 0H24V24H0z"/><path fill="#74767B" fill-rule="evenodd" d="M11.9814 19.0371C11.9814 19.3911 12.2725 19.678 12.6313 19.678C12.9902 19.678 13.2812 19.3911 13.2812 19.0371L13.2812 4.61914C13.2812 4.26538 12.9902 3.97852 12.6313 3.97852C12.2725 3.97852 11.9814 4.26538 11.9814 4.61914L11.9814 19.0371ZM16.5259 19.678C16.167 19.678 15.876 19.3911 15.876 19.0371L15.876 4.61914C15.876 4.26538 16.167 3.97852 16.5259 3.97852C16.8848 3.97852 17.1758 4.26538 17.1758 4.61914L17.1758 19.0371C17.1758 19.3911 16.8848 19.678 16.5259 19.678ZM8.08594 19.0439C8.08594 19.3979 8.37695 19.6848 8.73584 19.6848C9.09473 19.6848 9.38574 19.3979 9.38574 19.0439L9.38574 4.62598C9.38574 4.27222 9.09473 3.98535 8.73584 3.98535C8.37695 3.98535 8.08594 4.27222 8.08594 4.62598L8.08594 19.0439ZM4.84033 15.4688C4.48145 15.4688 4.19043 15.1821 4.19043 14.8281L4.19043 4.62622C4.19043 4.27222 4.48145 3.98535 4.84033 3.98535C5.19922 3.98535 5.49023 4.27222 5.49023 4.62622L5.49023 14.8281C5.49023 15.1821 5.19922 15.4688 4.84033 15.4688ZM20.4214 14.0522C20.0625 14.0522 19.7715 13.7654 19.7715 13.4116L19.7715 10.2458C19.7715 9.89185 20.0625 9.60522 20.4214 9.60522C20.7803 9.60522 21.0713 9.89185 21.0713 10.2458L21.0713 13.4116C21.0713 13.7654 20.7803 14.0522 20.4214 14.0522ZM4.84033 19.6851C4.48145 19.6851 4.19043 19.3982 4.19043 19.0444L4.19043 17.4148C4.19043 17.061 4.48145 16.7742 4.84033 16.7742C5.19922 16.7742 5.49023 17.061 5.49023 17.4148L5.49023 19.0444C5.49023 19.3982 5.19922 19.6851 4.84033 19.6851Z"/></svg>

<svg xmlns="http://www.w3.org/2000/svg" fill="none" viewBox="0 0 24 24" focusable="false"><path fill="#74767B" fill-rule="evenodd" d="M11.98 19.03c0 .36.29.64.65.64s.65-.28.65-.64V4.61c0-.35-.29-.64-.65-.64s-.65.29-.65.64zm4.54.64a.64.64 0 0 1-.65-.64V4.61c0-.35.29-.64.65-.64s.65.29.65.64v14.42c0 .36-.29.64-.65.64m-8.44-.63c0 .35.29.64.65.64s.65-.29.65-.64V4.62c0-.35-.29-.64-.65-.64s-.65.29-.65.64zm-3.24-3.58a.64.64 0 0 1-.65-.64V4.62c0-.35.29-.64.65-.64.35 0 .65.29.65.64v10.2c0 .36-.3.64-.65.64m15.58-1.41c-.36 0-.65-.29-.65-.64v-3.17c0-.35.29-.64.65-.64s.65.29.65.64v3.17c0 .35-.29.64-.65.64M4.84 19.68c-.36 0-.65-.29-.65-.64v-1.63c0-.35.29-.64.65-.64.35 0 .65.29.65.64v1.63c0 .35-.3.64-.65.64"/></svg>
